svg/emoji_u1f95e.svg

<?xml version="1.0" encoding="UTF-8" standalone="no"?>
<!DOCTYPE svg PUBLIC "-//W3C//DTD SVG 1.1//EN" "http://www.w3.org/Graphics/SVG/1.1/DTD/svg11.dtd">
<svg width="100%" height="100%" viewBox="0 0 128 128" version="1.1" xmlns="http://www.w3.org/2000/svg" xmlns:xlink="http://www.w3.org/1999/xlink" xml:space="preserve" xmlns:serif="http://www.serif.com/" style="fill-rule:evenodd;clip-rule:evenodd;stroke-linejoin:round;stroke-miterlimit:2;">
    <path id="path22863" d="M126.671,95.51C126.671,107.01 107.501,120.84 64.341,120.84C14.921,120.84 2.011,107.01 2.011,95.51" style="fill:rgb(147,177,187);fill-rule:nonzero;"/>
    <ellipse id="ellipse22865" cx="64.341" cy="95.04" rx="62.33" ry="19.88" style="fill:rgb(203,219,224);"/>
    <path id="path14828" d="M87.7,110.45C87.7,110.45 58.85,114.56 58.15,115.5C57.55,116.29 57.03,116.96 60.07,119.62C62.91,122.1 74.12,129.72 97.75,122.57C111.41,118.44 117.96,105.42 115.77,101.71C113.58,98 110.09,99.31 110.09,99.31L87.7,110.45Z" style="fill:rgb(230,81,0);fill-rule:nonzero;"/>
    <path id="path148281" serif:id="path14828" d="M87.7,110.45C87.7,110.45 58.85,114.56 58.15,115.5C57.55,116.29 57.03,116.96 60.07,119.62C62.91,122.1 74.12,129.72 97.75,122.57C111.41,118.44 117.96,105.42 115.77,101.71C113.58,98 110.09,99.31 110.09,99.31L87.7,110.45Z" style="fill:rgb(239,108,0);fill-rule:nonzero;"/>
    <path id="path14830" d="M64.54,112.52C64.54,112.52 57.26,112.5 58.03,115.66C58.31,116.83 65.95,118.98 71.08,119.3C76.32,119.63 85.09,119.69 96.67,115.1C106.41,111.24 110.5,107.93 113.36,103.4C114.74,101.21 113.47,98.47 113.47,98.47L64.54,112.52Z" style="fill:rgb(239,108,0);fill-rule:nonzero;"/>
    <path id="path14832" d="M8.75,69.52C8.75,69.52 7.21,70.73 5.78,75.36C4.71,78.81 2.81,84.06 5.47,89.96C7.36,94.15 17.26,114.74 61.02,116.49C107.11,118.33 119.54,94.02 121.03,88.26C123.26,79.59 119.98,75.13 118.54,74.08C117.08,73.02 8.75,69.52 8.75,69.52Z" style="fill:rgb(255,224,178);fill-rule:nonzero;"/>
    <path id="path14834" d="M14.66,66.58C14.4,66.97 7.31,71.44 7.31,71.44C7.31,71.44 3.63,79.45 10.2,88.12C16.77,96.79 30.94,107.03 61.28,109C91.61,110.97 114.99,98.1 118.8,85.63C122.61,73.16 114.96,70.69 114.96,70.69L14.66,66.58Z" style="fill:rgb(255,167,38);fill-rule:nonzero;"/>
    <path id="path14836" d="M77.95,93.5C77.82,94.94 79.16,98.71 83.55,101.82C86.86,104.17 89.78,105.02 90.16,105.31C90.21,106.39 90.45,112.21 89.67,113.92C88.88,115.63 83.6,116.34 83.6,116.34L91.74,116.34C91.74,116.34 96.86,118.18 96.86,113.19C96.86,108.2 97.93,102.88 98.72,101.31C99.15,100.46 102.51,98.63 104.75,95.65C106.65,93.11 107.27,90.42 107.5,89.29C107.73,88.16 108.45,85.7 106.71,84.56C104.76,83.3 77.95,93.5 77.95,93.5Z" style="fill:rgb(230,81,0);fill-rule:nonzero;"/>
    <path id="path148361" serif:id="path14836" d="M77.95,93.5C77.82,94.94 79.16,98.71 83.55,101.82C86.86,104.17 89.78,105.02 90.16,105.31C90.21,106.39 90.45,112.21 89.67,113.92C88.88,115.63 83.6,116.34 83.6,116.34L91.74,116.34C91.74,116.34 96.86,118.18 96.86,113.19C96.86,108.2 97.93,102.88 98.72,101.31C99.15,100.46 102.51,98.63 104.75,95.65C106.65,93.11 107.27,90.42 107.5,89.29C107.73,88.16 108.45,85.7 106.71,84.56C104.76,83.3 77.95,93.5 77.95,93.5Z" style="fill:rgb(133,92,82);fill-opacity:0.3;fill-rule:nonzero;"/>
    <path id="path14838" d="M8.62,48.2C8.62,48.2 3.76,53.06 4.29,62.51C4.82,71.96 15.45,95.21 61.81,96.78C107.5,98.33 121.62,73.68 123.26,66.45C124.76,59.84 122.88,54.7 119.86,50.63C116.84,46.56 48.28,43.34 48.28,43.34L8.62,48.2Z" style="fill:rgb(255,224,178);fill-rule:nonzero;"/>
    <path id="path14840" d="M12.3,45.57C12.3,45.57 5.82,48.02 6.26,56.08C6.79,65.8 21.89,88.65 63.64,88.51C100.8,88.39 121.16,68.16 121.42,57.52C121.68,47.01 113.41,46.49 113.41,46.49L12.3,45.57Z" style="fill:rgb(255,167,38);fill-rule:nonzero;"/>
    <path id="path14842" d="M92.4,66.06L64.82,70C64.82,70 66.83,75.12 74.27,78.67C82.54,82.61 89.5,81.82 89.9,84.45C90.29,87.08 90.68,94.9 90.68,94.9L93.84,94.3L101.82,74.57L105.85,69.53C105.85,69.53 108.41,62.39 105.52,59.77C102.64,57.13 92.4,66.06 92.4,66.06Z" style="fill:rgb(230,81,0);fill-rule:nonzero;"/>
    <path id="path148421" serif:id="path14842" d="M92.4,66.06L64.82,70C64.82,70 66.83,75.12 74.27,78.67C82.54,82.61 89.5,81.82 89.9,84.45C90.29,87.08 90.68,94.9 90.68,94.9L93.84,94.3L101.82,74.57L105.85,69.53C105.85,69.53 108.41,62.39 105.52,59.77C102.64,57.13 92.4,66.06 92.4,66.06Z" style="fill:rgb(133,92,82);fill-opacity:0.3;fill-rule:nonzero;"/>
    <path id="path14844" d="M26.35,18.52C25.96,18.52 15.71,19.96 15.71,19.96C15.71,19.96 7,24.66 6.65,37.3C6.25,51.48 19.39,71.05 62.33,71.31C106.32,71.58 121.27,54.27 122.21,42.29C123.33,28.02 115.25,22.19 115.25,22.19L26.35,18.52Z" style="fill:rgb(255,224,178);fill-rule:nonzero;"/>
    <path id="path14846" d="M10.46,31.52C10.61,46.75 26.87,61.85 63.9,63.17C100.04,64.45 119.84,46.89 119.71,32.18C119.59,18.52 97.79,5.26 63.25,5.13C28.18,5 10.33,18.13 10.46,31.52Z" style="fill:rgb(255,167,38);fill-rule:nonzero;"/>
    <path id="path14848" d="M85.37,75.82C85.47,78.87 92.77,80.18 93.21,82.57C93.65,84.97 93.87,94.61 93.87,94.61C93.87,94.61 91.88,95.44 89.67,95.9C87.17,96.42 84.44,96.65 84.85,98.08C85.86,101.55 93.27,103.33 93.27,103.33C93.27,103.33 93.62,108.7 93.49,110.95C93.19,116.22 91.74,117.12 91.74,117.12L95.38,120.09L99.95,114.44C99.95,114.44 99.73,109.36 99.66,107.69C99.59,106.02 99.44,102.54 99.44,102.54C99.44,102.54 103.1,99.83 105.57,95.07C107.41,91.52 107.43,88.97 105.11,90.06C102.79,91.15 99.13,93.17 99.13,93.17C99.13,93.17 98.65,84.25 99.44,81.93C100.24,79.61 106.63,70.68 105.68,69.15C104.73,67.62 98.93,70.96 95.44,71.91C91.97,72.84 85.29,73.64 85.37,75.82Z" style="fill:rgb(239,108,0);fill-rule:nonzero;"/>
    <path id="path14850" d="M46.8,5.2C46.8,5.2 38.09,6.11 37.28,11.73C36.46,17.35 37.55,18.17 33.92,20.26C30.29,22.35 20.1,27.77 19.55,29.76C19,31.75 17.86,37.48 30.74,38.94C39.65,39.95 42.34,38.83 47.61,42.64C52.88,46.45 54.02,53.4 62.56,56.36C68.22,58.32 72.19,56.72 76.91,58.99C81.63,61.26 86.08,65.66 91.29,64.65C95.69,63.8 98.57,50.59 98.57,50.31C98.57,50.03 99.02,35.08 99.02,35.08C99.02,35.08 97.06,32.45 98.41,29.78C99.33,27.95 106.21,23.28 107.21,20.53C108.15,17.95 107.74,15.14 106.47,14.14C105.2,13.14 91.52,15.73 91.25,15.36C90.98,14.99 74.74,11.55 72.38,10.82C70.02,10.1 46.8,5.2 46.8,5.2Z" style="fill:rgb(230,81,0);fill-rule:nonzero;"/>
    <path id="path148501" serif:id="path14850" d="M46.8,5.2C46.8,5.2 38.09,6.11 37.28,11.73C36.46,17.35 37.55,18.17 33.92,20.26C30.29,22.35 20.1,27.77 19.55,29.76C19,31.75 17.86,37.48 30.74,38.94C39.65,39.95 42.34,38.83 47.61,42.64C52.88,46.45 54.02,53.4 62.56,56.36C68.22,58.32 72.19,56.72 76.91,58.99C81.63,61.26 86.08,65.66 91.29,64.65C95.69,63.8 98.57,50.59 98.57,50.31C98.57,50.03 99.02,35.08 99.02,35.08C99.02,35.08 97.06,32.45 98.41,29.78C99.33,27.95 106.21,23.28 107.21,20.53C108.15,17.95 107.74,15.14 106.47,14.14C105.2,13.14 91.52,15.73 91.25,15.36C90.98,14.99 74.74,11.55 72.38,10.82C70.02,10.1 46.8,5.2 46.8,5.2Z" style="fill:rgb(133,92,82);fill-opacity:0.3;fill-rule:nonzero;"/>
    <path id="path14852" d="M95.6,28.51C94.95,34.28 102.41,34.5 102.68,42.12C102.86,47.38 99.23,50.56 97.69,54.18C96.15,57.81 94.06,60.98 90.71,61.71C87.35,62.44 81.35,57.6 76.18,55.69C71.01,53.79 68.17,56.81 60.44,52.44C55.88,49.87 50.89,39.48 44.72,37.67C41.91,36.84 35.78,37 30.65,36.31C24.52,35.48 19.52,33.69 19.41,30.87C19.14,23.43 36.92,20.17 38.64,17.54C40.36,14.91 36.35,6.59 47.17,4.75C61.59,2.3 68.4,8.38 77.37,10.01C86.34,11.64 101.64,10.06 105.49,13.09C112.38,18.53 96.24,22.89 95.6,28.51Z" style="fill:rgb(239,108,0);fill-rule:nonzero;"/>
    <path id="path16550" d="M48.894,16.193C48.894,16.193 49.374,14.753 51.714,14.383C54.054,14.013 59.864,14.013 62.414,13.423C64.974,12.833 69.284,10.653 71.514,11.133C73.754,11.613 76.034,16.483 76.604,17.393C79.014,21.203 80.934,23.903 81.194,25.343C81.464,26.783 69.324,31.843 68.744,31.843C68.164,31.843 59.744,37.643 57.454,32.963C55.164,28.283 48.994,16.033 48.894,16.193Z" style="fill:rgb(250,222,98);fill-rule:nonzero;"/>
    <path id="path16552" d="M67.684,27.743C64.864,28.333 58.635,29.98 58.635,29.98C56.179,30.437 55.631,32.139 55.73,33.454C55.73,33.454 57.189,35.917 58.214,35.917C59.934,35.917 65.584,34.413 69.674,33.353C73.404,32.383 80.954,30.613 81.274,29.923C81.594,29.233 81.944,24.953 80.994,24.783C80.414,24.683 77.174,25.553 75.364,25.983C72.814,26.583 70.504,27.163 67.684,27.743Z" style="fill:rgb(245,173,2);fill-rule:nonzero;"/>
    <path id="path16554" d="M47.894,20.083C48.114,20.763 50.024,24.873 51.564,27.323C53.104,29.773 56.784,35.763 57.844,35.873C58.814,35.973 58.714,34.313 58.794,33.243C58.884,32.013 58.854,30.893 58.594,30.043C58.324,29.193 56.034,25.573 54.814,23.653C53.594,21.733 50.024,15.403 49.224,15.663C48.424,15.933 47.524,18.913 47.894,20.083Z" style="fill:rgb(253,198,65);fill-rule:nonzero;"/>
</svg>

<?xml version="1.0" encoding="UTF-8" standalone="no"?>
<!-- Generator: Adobe Illustrator 25.2.3, SVG Export Plug-In . SVG Version: 6.00 Build 0)  -->

<svg
   version="1.1"
   id="Layer_3"
   x="0px"
   y="0px"
   viewBox="0 0 128 128"
   style="enable-background:new 0 0 128 128;"
   xml:space="preserve"
   sodipodi:docname="Emoji_u1f95e.svg"
   inkscape:version="1.2.2 (732a01da63, 2022-12-09)"
   xmlns:inkscape="http://www.inkscape.org/namespaces/inkscape"
   xmlns:sodipodi="http://sodipodi.sourceforge.net/DTD/sodipodi-0.dtd"
   xmlns="http://www.w3.org/2000/svg"
   xmlns:svg="http://www.w3.org/2000/svg"><defs
   id="defs14877" /><sodipodi:namedview
   id="namedview14875"
   pagecolor="#ffffff"
   bordercolor="#000000"
   borderopacity="0.25"
   inkscape:showpageshadow="2"
   inkscape:pageopacity="0.0"
   inkscape:pagecheckerboard="0"
   inkscape:deskcolor="#d1d1d1"
   showgrid="false"
   inkscape:zoom="4"
   inkscape:cx="61.5"
   inkscape:cy="73"
   inkscape:window-width="1366"
   inkscape:window-height="697"
   inkscape:window-x="-8"
   inkscape:window-y="-8"
   inkscape:window-maximized="1"
   inkscape:current-layer="Layer_3" />
<path
   d="m 126.67099,95.51 c 0,11.5 -19.17,25.33 -62.33,25.33 -49.42,0 -62.3299998,-13.83 -62.3299998,-25.33"
   style="fill:#a4b5be"
   id="path22863" /><ellipse
   cx="64.340988"
   cy="95.040001"
   rx="62.330002"
   ry="19.879999"
   style="fill:#e3e3e3;fill-opacity:1"
   id="ellipse22865" /><path
   style="fill:#D17020;"
   d="M87.7,110.45c0,0-28.85,4.11-29.55,5.05c-0.6,0.79-1.12,1.46,1.92,4.12  c2.84,2.48,14.05,10.1,37.68,2.95c13.66-4.13,20.21-17.15,18.02-20.86s-5.68-2.4-5.68-2.4L87.7,110.45z"
   id="path14828" />
<path
   style="fill:#d17020;fill-opacity:1"
   d="M64.54,112.52c0,0-7.28-0.02-6.51,3.14c0.28,1.17,7.92,3.32,13.05,3.64  c5.24,0.33,14.01,0.39,25.59-4.2c9.74-3.86,13.83-7.17,16.69-11.7c1.38-2.19,0.11-4.93,0.11-4.93L64.54,112.52z"
   id="path14830" />
<path
   style="fill:#FCE9C5;"
   d="M8.75,69.52c0,0-1.54,1.21-2.97,5.84c-1.07,3.45-2.97,8.7-0.31,14.6  c1.89,4.19,11.79,24.78,55.55,26.53c46.09,1.84,58.52-22.47,60.01-28.23c2.23-8.67-1.05-13.13-2.49-14.18  C117.08,73.02,8.75,69.52,8.75,69.52z"
   id="path14832" />
<path
   style="fill:#FFA828;"
   d="M14.66,66.58c-0.26,0.39-7.35,4.86-7.35,4.86s-3.68,8.01,2.89,16.68S30.94,107.03,61.28,109  c30.33,1.97,53.71-10.9,57.52-23.37c3.81-12.47-3.84-14.94-3.84-14.94L14.66,66.58z"
   id="path14834" />
<path
   style="fill:#d17020;fill-opacity:1"
   d="M77.95,93.5c-0.13,1.44,1.21,5.21,5.6,8.32c3.31,2.35,6.23,3.2,6.61,3.49  c0.05,1.08,0.29,6.9-0.49,8.61c-0.79,1.71-6.07,2.42-6.07,2.42h8.14c0,0,5.12,1.84,5.12-3.15s1.07-10.31,1.86-11.88  c0.43-0.85,3.79-2.68,6.03-5.66c1.9-2.54,2.52-5.23,2.75-6.36s0.95-3.59-0.79-4.73C104.76,83.3,77.95,93.5,77.95,93.5z"
   id="path14836" />
<path
   style="fill:#FCE9C5;"
   d="M8.62,48.2c0,0-4.86,4.86-4.33,14.31s11.16,32.7,57.52,34.27c45.69,1.55,59.81-23.1,61.45-30.33  c1.5-6.61-0.38-11.75-3.4-15.82s-71.58-7.29-71.58-7.29L8.62,48.2z"
   id="path14838" />
<path
   style="fill:#FFA828;"
   d="M12.3,45.57c0,0-6.48,2.45-6.04,10.51c0.53,9.72,15.63,32.57,57.38,32.43  c37.16-0.12,57.52-20.35,57.78-30.99c0.26-10.51-8.01-11.03-8.01-11.03L12.3,45.57z"
   id="path14840" />
<path
   style="fill:#d17020;fill-opacity:1"
   d="M92.4,66.06L64.82,70c0,0,2.01,5.12,9.45,8.67c8.27,3.94,15.23,3.15,15.63,5.78  c0.39,2.63,0.78,10.45,0.78,10.45l3.16-0.6l7.98-19.73l4.03-5.04c0,0,2.56-7.14-0.33-9.76C102.64,57.13,92.4,66.06,92.4,66.06z"
   id="path14842" />
<path
   style="fill:#FCE9C5;"
   d="M26.35,18.52c-0.39,0-10.64,1.44-10.64,1.44S7,24.66,6.65,37.3C6.25,51.48,19.39,71.05,62.33,71.31  c43.99,0.27,58.94-17.04,59.88-29.02c1.12-14.27-6.96-20.1-6.96-20.1L26.35,18.52z"
   id="path14844" />
<path
   style="fill:#FFA828;"
   d="M10.46,31.52c0.15,15.23,16.41,30.33,53.44,31.65c36.14,1.28,55.94-16.28,55.81-30.99  C119.59,18.52,97.79,5.26,63.25,5.13C28.18,5,10.33,18.13,10.46,31.52z"
   id="path14846" />
<path
   style="fill:#D0701C;"
   d="M85.37,75.82c0.1,3.05,7.4,4.36,7.84,6.75c0.44,2.4,0.66,12.04,0.66,12.04s-1.99,0.83-4.2,1.29  c-2.5,0.52-5.23,0.75-4.82,2.18c1.01,3.47,8.42,5.25,8.42,5.25s0.35,5.37,0.22,7.62c-0.3,5.27-1.75,6.17-1.75,6.17l3.64,2.97  l4.57-5.65c0,0-0.22-5.08-0.29-6.75c-0.07-1.67-0.22-5.15-0.22-5.15s3.66-2.71,6.13-7.47c1.84-3.55,1.86-6.1-0.46-5.01  c-2.32,1.09-5.98,3.11-5.98,3.11s-0.48-8.92,0.31-11.24c0.8-2.32,7.19-11.25,6.24-12.78s-6.75,1.81-10.24,2.76  C91.97,72.84,85.29,73.64,85.37,75.82z"
   id="path14848" />
<path
   style="fill:#d17020;fill-opacity:1"
   d="M46.8,5.2c0,0-8.71,0.91-9.52,6.53c-0.82,5.62,0.27,6.44-3.36,8.53s-13.82,7.51-14.37,9.5  s-1.69,7.72,11.19,9.18c8.91,1.01,11.6-0.11,16.87,3.7s6.41,10.76,14.95,13.72c5.66,1.96,9.63,0.36,14.35,2.63  c4.72,2.27,9.17,6.67,14.38,5.66c4.4-0.85,7.28-14.06,7.28-14.34s0.45-15.23,0.45-15.23s-1.96-2.63-0.61-5.3  c0.92-1.83,7.8-6.5,8.8-9.25c0.94-2.58,0.53-5.39-0.74-6.39s-14.95,1.59-15.22,1.22s-16.51-3.81-18.87-4.54  C70.02,10.1,46.8,5.2,46.8,5.2z"
   id="path14850" />
<path
   style="fill:#CF701E;"
   d="M95.6,28.51c-0.65,5.77,6.81,5.99,7.08,13.61c0.18,5.26-3.45,8.44-4.99,12.06  c-1.54,3.63-3.63,6.8-6.98,7.53c-3.36,0.73-9.36-4.11-14.53-6.02c-5.17-1.9-8.01,1.12-15.74-3.25c-4.56-2.57-9.55-12.96-15.72-14.77  c-2.81-0.83-8.94-0.67-14.07-1.36c-6.13-0.83-11.13-2.62-11.24-5.44c-0.27-7.44,17.51-10.7,19.23-13.33  c1.72-2.63-2.29-10.95,8.53-12.79c14.42-2.45,21.23,3.63,30.2,5.26s24.27,0.05,28.12,3.08C112.38,18.53,96.24,22.89,95.6,28.51z"
   id="path14852" />










<path
   style="fill:#fade62"
   d="m 48.894141,16.193203 c 0,0 0.48,-1.44 2.82,-1.81 2.34,-0.37 8.15,-0.37 10.7,-0.96 2.56,-0.59 6.87,-2.77 9.1,-2.29 2.24,0.48 4.52,5.35 5.09,6.26 2.41,3.81 4.33,6.51 4.59,7.95 0.27,1.44 -11.87,6.5 -12.45,6.5 -0.58,0 -9,5.8 -11.29,1.12 -2.29,-4.68 -8.46,-16.93 -8.56,-16.77 z"
   id="path16550" /><path
   style="fill:#f5ad02"
   d="m 67.684141,27.743203 c -2.82,0.59 -9.049632,2.237092 -9.049632,2.237092 -2.455346,0.456946 -3.003859,2.15867 -2.904402,3.473874 0,0 1.459172,2.462376 2.483715,2.462376 1.720327,0 7.370319,-1.503342 11.460319,-2.563342 3.73,-0.97 11.28,-2.74 11.6,-3.43 0.32,-0.69 0.67,-4.97 -0.28,-5.14 -0.58,-0.1 -3.82,0.77 -5.63,1.2 -2.55,0.6 -4.86,1.18 -7.68,1.76 z"
   id="path16552"
   sodipodi:nodetypes="cccccsccc" /><path
   style="fill:#fdc641;fill-opacity:1"
   d="m 47.894141,20.083203 c 0.22,0.68 2.13,4.79 3.67,7.24 1.54,2.45 5.22,8.44 6.28,8.55 0.97,0.1 0.87,-1.56 0.95,-2.63 0.09,-1.23 0.06,-2.35 -0.2,-3.2 -0.27,-0.85 -2.56,-4.47 -3.78,-6.39 -1.22,-1.92 -4.79,-8.25 -5.59,-7.99 -0.8,0.27 -1.7,3.25 -1.33,4.42 z"
   id="path16554" /></svg>
